X:1
T:Blondo arcier
T:Blondo arcier
T:Giovanni Ghizzolo
C:Giovanni Ghizzolo
%%score [ 1 2 ] { 3 | 4 }
L:1/8
Q:1/4=120
M:4/4
K:F
V:1 treble nm="Soprano" snm="S"
V:2 bass nm="Bass" snm="B"
V:3 treble nm="MusicXML Part"
V:4 bass 
V:1
"^Source: Madrigali et Arie---Libro secondo---Venetia---A.Raverij---1609.\nEditor: André Vierendeels (06/1209)\nContinuo: André Vierendeels" z4 G2 A2"^ARIA" | %1
w: Blon- do'Ar-|
w: Ma qual|
w: Se fre-|
w: Del bel|
 B4 B2 c2- | c2 d2 d4 | d4 c2 B2 | A4 A4 | B2 c2 d4 | G2 A4 A2 | G4 G4 :: F2 G2 A4 | B2 G4 A2 | %10
w: cier che d'al-|* to mon-|te'Au- re- o|fon- te|sor- ger fai|di si bell'|on- da.|Ben puo dir|si'al- ma fe-|
w: poi del sa-|* cro'hu mo-|re spar- ge'il|co- re|Tra'i mor- tal|puo dir- siun|Di- o.|Ei de gli|an- n'il vol-|
w: giat' il cria|_ d'Al- lo-|re bel te-|so- ro|rec- ca sen|ge- ma- ta|li- ra.|Far- s'in tor-|no'al- ma co-|
w: co- ro'al suon|_ con- cor-|de l'au- rea|cor- de|si so- va-|v'in- di per-|co- re.|Che tra bos-|chi Fi- lo-|
 B4 B4 | A2 G2 ^F4 | ^F4 G2 G2 | G4 G2 A2- | A2 A2 G4 |[M:2/4] G4 :: z2 G2 |[M:4/4] G6 G2 | A8 | %19
w: li- ce|cui pur li-|ce ap- pres-|sar l'al- te-|* ra spon-|da,|l'al-|te- ra|spon-|
w: to'e- ter-|no pren- de'as-|cher- no'e- la|mor- te'e per-|* ses- c'o-|blio,|per|ses- c'o|bli-|
w: ro- na|d'E- li- co-|na l'al- te|Ver- gi- ne|_ ri- mi-|ra,|[l'al-|te] ri-|mi-|
w: me- na|ne si- re-|na tem- pran|la si co-|* re no-|te,|si|co- re|no-|
 G8 |] %20
w: da.|
w: o.|
w: ra.|
w: te.|
V:2
 z4 G,2 F,2 | _E,4 D,2 C,2- | C,2 F,2 B,,4 | B,,4 F,,2 G,,2 | D,4 D,4 | B,,2 A,,2 G,,4 | %6
w: Blon- do'Ar-|cier che d'al-|* to mon-|te'Au- re- o|fon- te|sor- ger fai|
w: Ma qual|poi del sa-|* crà'hu- mo-|re spar- ge'il|co- re|Tra'i mor- tal|
w: Se fre-|giat' il cria|_ d'Al- lo-|re bel te-|so- ro|rec- ca sen|
w: Del bel|co- ro'al suon|_ con- cor-|de l'au- rea|cor- de|si so- va-|
 _E,2 D,4 D,2 | G,,4 G,,4 :: D,2 E,2 F,4 | D,2 _E,4 C,2 | B,,4 B,,4 | F,,2 G,,2 D,4 | D,4 G,2 F,2 | %13
w: di si bell'|on- da.|Ben puo dir|si'al- ma fe-|li- ce|cui pur li-|ce ap- pres-|
w: puo dir suon|Di- o.|Ei de gli|an- n'il vol-|to'e ter-|no pren- de'as|cher- no'e- la|
w: ge- ma- ta|li- ra.|Far s'in tor|no'al- ma co-|ro- na|d'E- li- co-|na l'al- te|
w: v'in- di per-|co- re.|Che tra bos|chi Fi- lo-|me- na|ne si- re-|na tem- pran|
 _E,4 C,4 | D,3 D, G,,4 |[M:2/4] G,,4 :: z2 C,2 |[M:4/4] =B,,2 C,2 D,2 _E,2 | D,4 D,,4 | G,,8 |] %20
w: sar l'al-|te- ra spon-|da,|l'al-|te- * * ra|spon- *|da|
w: mo- te'e|per- ses- c'o-|blio,|per|ses- * * c'o-|bli- *|o.|
w: Ver- gi-|ne- ri- mi-|ra,|ri-|mi- * * *||ra.|
w: la si|co- re no-|te,|si|co- * * re|no- *|te.|
V:3
 z4 [DGB]2 [DFA]2 | [GB]4 [GB]2 [_E-Gc-]2 | [EGc]2 [FAc]2 [DFB]4 | [DFB]4 [FAc]2 [DGB]2 | [D^FA]8 | %5
 [DGB]2 [Fc]2 [GBd]4 | [GB]2 [D^FA]4 [FAd]2 | [DG=B]8 :: [DFA]2 [CEG]2 [FAc]4 | [FB]2 [GB]4 [EA]2 | %10
 [DFB]8 | [Fc]2 [GB]2 [D^FA]4 | [D^FA]4 [DFB]4 | [GB]4 [_EG]2 [EA]2 | %14
 [D^FA]4 [DGd]4"^Note: original keys: Ut 1st, Fa 4rt" |[M:2/4] [DG=B]4 :: z2 [EGc]2 | %17
[M:4/4] [DG]2 [Ec]2 [FB]2 [GB]2 | DEFG [^FAd]4 | [DG=B]8 |] %20
V:4
 z4 G,2 F,2 | _E,4 D,2 C,2- | C,2 F,2 B,,4 | B,,4 F,,2 G,,2 | D,4 D,4 | B,,2 A,,2 G,,4 | %6
 _E,2 D,4 D,2 | G,,4 G,,4 :: D,2 E,2 F,4 | D,2 _E,4 C,2 | B,,4 B,,4 | F,,2 G,,2 D,4 | D,4 G,2 F,2 | %13
 _E,4 C,4 | D,3 D, G,,4 |[M:2/4] G,,4 :: z2 C,2 |[M:4/4] =B,,2 C,2 D,2 _E,2 | D,4 D,,4 | G,,8 |] %20

